!!!OTL: Die Tr&auml;ne (1-8), S. 21f
!!!id: K0086
**kern
*clefG2
*k[b-]
*F:
{8c
8f
8a
=1
4.cc
8dd
8.cc
16g
8cc
8g
=2
2a}
8r
=3
{8a
8b-
8a
=4
4.g
8g
8g
8g
8a
8g
=5
2f}
8r
=6
{8c
8f
8a
=7
4.cc
8dd
8.cc
16g
8cc
8g
=8
2a}
8r
=9
{8a
8b-
8a
=10
4.g
8g
8g
8b-
8a
8g
=11
2f}
8r
=12
{8a
8a
8a
=13
4.a
8a
8a
8a
8b-
8e
=14
2f}
8r
=15
{8f
8f
8dd
=16
4.dd
8dd
8.cc
16g
8cc
8g
=17
2a}
8r
=18
{8a
8b-
8a
=19
4.g
8g
8g
8a
8b-
8cc
=20
2dd}
8r
=21
{8dd
8cc
8b-
=22
8a
8cc
8cc
4r
8cc
8b
8cc
=23
4.ee
8dd}
=24
{8.cc
16dd
8.b-
16cc
=25
4.a}
8r
=26
{8f
8g
16f
8a
8b-
8cc
16f
=27
4.dd
8cc
4cc}
4r
=28
{4.f
8a
4a
4g
=29
4.f}
4r
==
*-
!!!minrhy: 16
!!!meters: 4/4 ]  ZZ[11
!!!cut: Die Tr&auml;ne (1-8), S. 21f
!!!reg: Luxemburg
!!!trd: KINTZELE, Guillaume: An der Ucht, Bd. 1, Luxemburg 1926
!!!rhy1: X_X_X_  X__.X_X_.XX_X_  X___0_
!!!rhy2: X_X_X_  X__.X_X_X_X_X_  X___0_
!!!key: K0086  16  F 4/4 ]  ZZ[11
!!!mod: ACHTTONSKALA DUR ?]  AMBITUS[11
!!!kad: 31311366351
!!!akz: 553_221_553_221_331_653_226_37_53_+165_131_
!!!fot: 'a__b__a__bv_as'c__bw_d__e__f__g__
!!!for: 'a__b__a__b__b__a__b__c__d__aw_aw_
!!!fok: '^a_\__^a_\__\__^a_/__V__\__\__^__
!! PHRAS[VORWIEGEND AUFTAKTIG]
!!!fkt: ???
!!!bem1: in der Quelle mit einer 2. Stimme versehen; dritt-letzte Zeile:
!!!bem2: Pause um ein auf ein Achtel gek&uuml;rzt
!! KINTZELE
!! PR[3] 2K[11] 2G[19] 3K[9] 3G[3] 4A[2] 4Ü[0] 5A[1] 6K[0] 6G[4]
!! 7K[2] 7G[0] 8A[0] MEHR[0] SI[52] ABS[93] SR[30] SP[22]
!! ST[18] 2k[8] 2g[14] 3k[4] 3g[6] 4d[3] 4ü[1] 5d[4] 6k[4] 6g[0]
!! 7k[0] 7g[0] 8d[0] mehr[0] si[45] dm[+7] sr[22] sp[24]
!! 1F[74] 2F[13] 3F[0] 4F[0] LF[0] 2P[14] 3P[0] 4P[0] TRI[0] DF[3] AB[103]
!! TF[0] U3K[0] U3[0] U4[0] U4Ü[0] U5[4] U6K[0] U6[4] U7K[0] U7[5]
!! N1[18] N2K[0] N2[9] N3K[0] N3[19] N4[7] N4Ü[5] N5[21] N6K[0] N6[5]
!!!n7k: 0] N7[1] O1[0] O2K[0] O2[0] O3K[0] O3[0] HÖ[0
!!!RNB: symbol: &auml;  = a umlaut  (UTF-8: Å„)
!!!RNB: symbol: &uuml;  = u umlaut (UTF-8: Ã¼)
